Numix/16/status/indicator-keyboard-Fr-2.svg

<?xml version="1.0" encoding="UTF-8" standalone="no"?>
<svg
   xmlns:dc="http://purl.org/dc/elements/1.1/"
   xmlns:cc="http://creativecommons.org/ns#"
   xmlns:rdf="http://www.w3.org/1999/02/22-rdf-syntax-ns#"
   xmlns:svg="http://www.w3.org/2000/svg"
   xmlns="http://www.w3.org/2000/svg"
   xmlns:sodipodi="http://sodipodi.sourceforge.net/DTD/sodipodi-0.dtd"
   xmlns:inkscape="http://www.inkscape.org/namespaces/inkscape"
   viewBox="0 0 16 16"
   id="svg2"
   version="1.1"
   inkscape:version="0.91 r13725"
   sodipodi:docname="indicator-keyboard-Fr-2.svg">
  <metadata
     id="metadata14">
    <rdf:RDF>
      <cc:Work
         rdf:about="">
        <dc:format>image/svg+xml</dc:format>
        <dc:type
           rdf:resource="http://purl.org/dc/dcmitype/StillImage" />
      </cc:Work>
    </rdf:RDF>
  </metadata>
  <defs
     id="defs12" />
  <sodipodi:namedview
     pagecolor="#ffffff"
     bordercolor="#666666"
     borderopacity="1"
     objecttolerance="10"
     gridtolerance="10"
     guidetolerance="10"
     inkscape:pageopacity="0"
     inkscape:pageshadow="2"
     inkscape:window-width="459"
     inkscape:window-height="369"
     id="namedview10"
     showgrid="false"
     inkscape:zoom="14.75"
     inkscape:cx="8"
     inkscape:cy="8"
     inkscape:window-x="65"
     inkscape:window-y="24"
     inkscape:window-maximized="0"
     inkscape:current-layer="svg2" />
  <path
     style="fill:#ececec;fill-opacity:1"
     d="M 1.5996094 0 C 0.71320937 2.9605947e-16 0 0.71320937 0 1.5996094 L 0 14.400391 C 2.9605947e-16 15.286791 0.71320937 16 1.5996094 16 L 14.400391 16 C 15.286791 16 16 15.286791 16 14.400391 L 16 1.5996094 C 16 0.71320937 15.286791 0 14.400391 0 L 1.5996094 0 z M 3.0644531 4.859375 L 6.6191406 4.859375 L 6.6191406 5.390625 L 3.6757812 5.390625 L 3.6757812 7.5859375 L 6.2851562 7.5859375 L 6.2851562 8.1171875 L 3.6757812 8.1171875 L 3.6757812 11.095703 L 3.0644531 11.095703 L 3.0644531 4.859375 z M 9.1289062 6.3535156 C 9.3209063 6.3535156 9.5019219 6.3684375 9.6699219 6.3984375 C 9.8439219 6.4284375 9.963297 6.4582812 10.029297 6.4882812 L 9.9121094 6.9921875 C 9.8641094 6.9681875 9.7652344 6.9439219 9.6152344 6.9199219 C 9.4712344 6.8899219 9.2790625 6.875 9.0390625 6.875 C 8.7870625 6.875 8.5837344 6.8936875 8.4277344 6.9296875 C 8.2777344 6.9656875 8.1788594 6.9955312 8.1308594 7.0195312 L 8.1308594 11.095703 L 7.5449219 11.095703 L 7.5449219 6.6582031 C 7.6949219 6.5922031 7.9020156 6.5269375 8.1660156 6.4609375 C 8.4300156 6.3889375 8.7509063 6.3535156 9.1289062 6.3535156 z M 11.609375 8.7539062 C 12.003275 8.7539062 12.299147 8.851875 12.498047 9.046875 C 12.696947 9.237975 12.796875 9.5044563 12.796875 9.8476562 C 12.796875 9.9997563 12.769444 10.14475 12.714844 10.28125 C 12.660244 10.41385 12.585788 10.543169 12.492188 10.667969 C 12.402488 10.792769 12.298641 10.912297 12.181641 11.029297 C 12.064641 11.146297 11.945119 11.263859 11.824219 11.380859 C 11.722819 11.478359 11.624844 11.578288 11.527344 11.679688 C 11.433744 11.777188 11.347531 11.877116 11.269531 11.978516 C 11.195431 12.076016 11.134691 12.172031 11.087891 12.269531 C 11.044991 12.363131 11.023438 12.457181 11.023438 12.550781 L 11.023438 12.5625 L 12.935547 12.5625 L 12.935547 12.896484 L 10.601562 12.896484 C 10.601562 12.888684 10.59957 12.874969 10.595703 12.855469 L 10.595703 12.755859 C 10.595703 12.572559 10.629012 12.402094 10.695312 12.246094 C 10.761613 12.086194 10.845866 11.937275 10.947266 11.796875 C 11.052566 11.656475 11.168169 11.525197 11.292969 11.404297 C 11.421669 11.283397 11.545109 11.165834 11.662109 11.052734 C 11.759609 10.959134 11.849747 10.869003 11.935547 10.783203 C 12.025247 10.693503 12.103622 10.603366 12.169922 10.509766 C 12.236222 10.416166 12.289125 10.316237 12.328125 10.210938 C 12.367125 10.105638 12.386719 9.9900344 12.386719 9.8652344 C 12.386719 9.5922344 12.312263 9.39825 12.164062 9.28125 C 12.019762 9.16035 11.837534 9.0996094 11.615234 9.0996094 C 11.490434 9.0996094 11.37875 9.1152844 11.28125 9.1464844 C 11.18375 9.1776844 11.097537 9.2149125 11.023438 9.2578125 C 10.953237 9.2968125 10.892497 9.3379594 10.841797 9.3808594 C 10.791097 9.4237594 10.753869 9.4570688 10.730469 9.4804688 L 10.53125 9.2167969 C 10.55465 9.1894969 10.595797 9.1503094 10.654297 9.0996094 C 10.716697 9.0450094 10.793112 8.9921062 10.882812 8.9414062 C 10.976413 8.8907063 11.084178 8.8476 11.205078 8.8125 C 11.325978 8.7735 11.461175 8.7539063 11.609375 8.7539062 z "
     id="path4" />
</svg>

<svg xmlns="http://www.w3.org/2000/svg" viewBox="0 0 16 16">
 <path d="m 1.6 0 c -0.886 0 -1.6 0.713 -1.6 1.6 l 0 12.801 c 0 0.886 0.713 1.6 1.6 1.6 l 12.801 0 c 0.886 0 1.6 -0.713 1.6 -1.6 l 0 -12.801 c 0 -0.886 -0.713 -1.6 -1.6 -1.6 l -12.801 0 z m 1.465 4.859 l 3.555 0 l 0 0.531 l -2.943 0 l 0 2.195 l 2.609 0 l 0 0.531 l -2.609 0 l 0 2.979 l -0.611 0 l 0 -6.236 z m 6.06 1.494 c 0.192 0 0.373 0.015 0.541 0.045 c 0.174 0.03 0.293 0.06 0.359 0.09 l -0.117 0.504 c -0.048 -0.024 -0.147 -0.048 -0.297 -0.072 c -0.144 -0.03 -0.336 -0.045 -0.576 -0.045 c -0.252 0 -0.455 0.019 -0.611 0.055 c -0.15 0.036 -0.249 0.066 -0.297 0.09 l 0 4.076 l -0.586 0 l 0 -4.437 c 0.15 -0.066 0.357 -0.131 0.621 -0.197 c 0.264 -0.072 0.585 -0.107 0.963 -0.107 z m 2.48 2.4 c 0.394 0 0.69 0.098 0.889 0.293 c 0.199 0.191 0.299 0.458 0.299 0.801 c 0 0.152 -0.027 0.297 -0.082 0.434 c -0.055 0.133 -0.129 0.262 -0.223 0.387 c -0.09 0.125 -0.194 0.244 -0.311 0.361 c -0.117 0.117 -0.237 0.235 -0.357 0.352 c -0.101 0.098 -0.199 0.197 -0.297 0.299 c -0.094 0.098 -0.18 0.197 -0.258 0.299 c -0.074 0.097 -0.135 0.194 -0.182 0.291 c -0.043 0.094 -0.064 0.188 -0.064 0.281 l 0 0.012 l 1.912 0 l 0 0.334 l -2.334 0 c 0 -0.008 -0.002 -0.022 -0.006 -0.041 l 0 -0.1 c 0 -0.183 0.033 -0.354 0.1 -0.51 c 0.066 -0.16 0.151 -0.309 0.252 -0.449 c 0.105 -0.14 0.221 -0.272 0.346 -0.393 c 0.129 -0.121 0.252 -0.238 0.369 -0.352 c 0.098 -0.094 0.188 -0.184 0.273 -0.27 c 0.09 -0.09 0.168 -0.18 0.234 -0.273 c 0.066 -0.094 0.119 -0.194 0.158 -0.299 c 0.039 -0.105 0.059 -0.221 0.059 -0.346 c 0 -0.273 -0.074 -0.467 -0.223 -0.584 c -0.144 -0.121 -0.327 -0.182 -0.549 -0.182 c -0.125 0 -0.236 0.016 -0.334 0.047 c -0.098 0.031 -0.184 0.068 -0.258 0.111 c -0.07 0.039 -0.131 0.08 -0.182 0.123 c -0.051 0.043 -0.088 0.076 -0.111 0.1 l -0.199 -0.264 c 0.023 -0.027 0.065 -0.066 0.123 -0.117 c 0.062 -0.055 0.139 -0.108 0.229 -0.158 c 0.094 -0.051 0.201 -0.094 0.322 -0.129 c 0.121 -0.039 0.256 -0.059 0.404 -0.059 z" style="fill:#ececec;fill-opacity:1"/>
</svg>
